X:1
T:Les miens aussi
T:Les miens aussi 3v
T:Tielman Susato
T:Source : Le premier Livre des Chansons à 3 parties--Anvers---T.Susato---1544. Editor : André Vierendeels (04/02/15).
T:Notes : Original clefs : C1, Original note values have been halved Editorial accidentals above the staff Notice above the S voice : " Puis chanterez tous trois ensamble" This chanson is the "Responce" to the chanson "Mille regretz"(Susato).
C:Tielman Susato
%%score [ 1 [ 2 3 ] ]
L:1/8
Q:1/4=84
M:2/2
K:C
V:1 treble nm="Superius" snm="S"
V:2 treble nm="Altus" snm="A"
V:3 treble-8 nm="Tenor" snm="T"
V:1
 E8 | A4 A4 | G8 | c4 A2 c2 | B2 A2 G4- | G4 c4 | A2 c2 B2 A2- | A2 G2 F4 | E4 F4 | D2 F2 E2 D2- | %10
w: Les|miens aus-|si,|brief ver- ras|de- cli- ner,|_ brief|ver- ras de- cli-|* * ner,|brief ver-|ras de- cli- *|
 D2 C2 B,4 | A,4 z2 E2 | G6 F2 | E4 z2 A2 | c6 B2 | A2 A2 A2 A2 | G2 E2 F4 | E2 A2 A2 A2 | %18
w: |ner voi-|ant au|vray, voi-|ant au|vray que for- tu-|n'en- nui- eu-|se, que for- tu-|
 G3 F ED F2- | FE E4 D2 | E4 z2 G2 | A2 B2 c4- | c2 B2 c2 d2 | e6 e2 | d2 c2 B2 A2 | d2 c4 BA | %26
w: n'en- * * * nui-|* * eu- *|se, de|no- stre'a- mour,|_ de no- stre'a-|mour veult|es- tre cu- ri-|eu- * * *|
 G4 z2 B2 | G2 G2 c4- | c2 B2 A2 G2 | F2 E2 D4 | C8 | z2 F2 D2 D2 | G6 F2 | E2 D2 C2 F2- | %34
w: se, par|ung dep- part|_ le fai- re|de- * cli-|ner,|par ung dep-|part le|fai- re de- *|
 FE E4 D2 | E8 |] %36
w: * * cli- *|ner.|
V:2
 z8 | A,8 | E4 E4 | C4 F4 | D2 F2 E3 D | C2 B,2 A,4 | F4 D2 F2- | F2 E2 D4 | C2 c2 A2 c2 | %9
w: |aus-|si, brief|ver- ras|de- cli- ner, *|* brief ver-|ras de- cli-|_ ner, brief|ver- ras de cli-|
 B2 A2 G2 B2- |"^#" BA A4 G2 | A2 E2 G3 F | E4 z2 A2 | c2 B2 A2 A,2 | A,B,CD EFGE | F4 D2 F2- | %16
w: ner, _ _ _|_ _ voi- *|ant au vray, voi-|ant au|vray que for- tu-|n'en- * * * vi- * * *|eu- se, que|
 FE E4 D2 | E2 c2 c2 c2 | B4 G2 A2- | AGFE F4 | E2 C2 D2 E2 | F2 ED C2 E2 | F2 G2 A2 GF | %23
w: |for- tu- n'en- vi-|eu- se de||no- stre'a- mour, de|no- _ _ _ stre'a-|mour veult es- _ _|
 E2 c2 c2 c2 | B2 A2 G2 F2 | D2 E2 F4 | E8 | z2 E2 C2 C2 | F6 E2 | D2 C2 F2 F2 | E4 z2 c2 | %31
w: _ tre cu- ri-|eu- se, par *||ung|dep- part fa-|re le|de- cli- ner, par|ung dep-|
 A2 A2 d4- | d2 c2 B2 A2 | G2 A3 GFE | D2 E2 F4 | E8 |] %36
w: part le fai-|_ re de- cli-|ner. * * * *|||
V:3
 A6 G2 | F4 F4 | E8 | A4 F2 F2 | G2 D2 E4- | E4 F4- | F2 F2 G2 D2 | F2 C2 D4 | A4 F2 A2 | %9
w: Les miens|aus- si,|brief|ver- ras de-|cli- * ner,|_ brief|_ ver- ras de-|* cli- ner,|brief ver- ras|
 G2 D2 E2 G2- | G2 A2 E4 | A4 G2 c2- | c2 B2 A3 A | A2 G2 F3 G | A4 E4 | z2 D2 D2 D2 | E2 C2 D4 | %17
w: de- * * *|* cli- ner,|voi- ant au|_ _ vray que|for- tu- n'en- nui-|eu- se,|que for- tu-|n'en- nui- eu-|
 A2 A2 A2 A2 | e6 A2 | c4 d4 | c3 B/A/ G2 G2 | F2 G2 A4- | A2 G2 F2 ED | C2 A2 c4 | G2 A2 E2 A2 | %25
w: se, que for- tu-|n'en- nui-|eu- *|se, _ _ _ de|no- stre'a- mour|_ veult es- * *|tre, de no-|stre'a- mour veult es-|
 B2 c2 FG AB | c3 B A2 G2 | E2 E2 A2 A2 | F6 C2 | D2 A2 D2 D2 | A2 z c A2 A2 | d3 c B3 A | %32
w: tre cu- ri- * * *|eu- * * *|se, par ung dep-|part le|fai- re de- cli-|ner, par ung dep-|part _ _ _|
 G3 F G2 A2 | E2 F4 D2- | D2 C2 D4 | A8 |] %36
w: _ _ _ le|fai- re de-|* * cli-|ner.|

